!! 00000] TT[WS
!!!OTL: Fengchui yunr san
!!!ARE: Asia, China, Shanxi Xiexian
!! Ethnic Group: Han
!! WI, 314
!!!SCT: J0380
!!!YEM: Copyright 1995, estate of Helmut Schaffrath.
**kern
*ICvox
*Ivox
*M2/4
*k[b-]
*F:
{8a
8cc
8dd
16ff
16dd
=1
2cc
=2
8a
16cc
16cc
8dd
16ff
16dd
=3
2cc}
=4
{8a
4cc
8dd
=5
8ff
8dd
4cc
=6
8cc
8g
8cc
16a
16g
=7
2f}
=8
{8a
8f
4g
=9
8g
8cc
8a
16g
16f
=10
8g
4d
8c
=11
2d}
=12
{8a
8f
4g
=13
8g
8cc
8a
16g
16f
=14
8g
4d
8c
=15
2d}
==
!!!AGN: Xiaodiao. Xinminge, Xuanchuan
!! Neue Text. Politische Liede
!!!ONB: ESAC (Essen Associative Code) Database: CHINA
!!!AMT: simple duple
!!!AIN: vox
!!!EED: Helmut Schaffrath
!!!EEV: 1.0
*-
